COLOR/status 16/16/process-completed.svg

<svg enable-background="new" height="16" width="16" xmlns="http://www.w3.org/2000/svg"><path d="m512.87834-293.99602c-1.34529.0265-2.69525.44583-3.88281 1.27735-3.16683 2.21743-3.93227 6.55973-1.71484 9.72656 2.21745 3.16683 6.55777 3.93228 9.72461 1.71484 2.27736-1.59463 3.31198-4.28216 2.89062-6.85351-.0982-.6008-.285-1.15996-.52734-1.70117l-6.35157 7.25781-.6875.8125-.78124-.75-3-3c-.37639-.37633-.37636-1.06114 0-1.4375.37636-.37635 1.06116-.37638 1.4375 0l2.25 2.25 6.02343-6.89258c-1.07681-1.24128-2.50923-2.03034-4.04297-2.30078-.44106-.0778-.88946-.11236-1.33789-.10352z" fill="#1ea362" transform="matrix(1.0733251 0 0 1.0723458 -542.61621 315.76685)"/><g enable-background="new" transform="matrix(1.000000008 0 0 1.000000008 .00000000465 .00000050306)"><path d="m8 .5c-4.155 0-7.5 3.345-7.5 7.5 0 .084349.008983.1663399.0117188.25.13203025-4.0374083 3.41763-7.25 7.4882812-7.25 4.070651 0 7.356251 3.2125917 7.488281 7.25.002736-.0836601.011719-.1656511.011719-.25 0-4.155-3.345-7.5-7.5-7.5z" fill="#fff" opacity=".3"/><path d="m.51171875 7.75c-.00273583.0836601-.01171875.1656511-.01171875.25 0 4.155 3.345 7.5 7.5 7.5s7.5-3.345 7.5-7.5c0-.084349-.009-.1663399-.01172-.25-.132029 4.037408-3.417629 7.25-7.48828 7.25-4.0706512 0-7.35625095-3.212592-7.48828125-7.25z" opacity=".2"/></g></svg>

<?xml version="1.0" encoding="UTF-8" standalone="no"?>
<svg
   xmlns:dc="http://purl.org/dc/elements/1.1/"
   xmlns:cc="http://creativecommons.org/ns#"
   xmlns:rdf="http://www.w3.org/1999/02/22-rdf-syntax-ns#"
   xmlns:svg="http://www.w3.org/2000/svg"
   xmlns="http://www.w3.org/2000/svg"
   xmlns:sodipodi="http://sodipodi.sourceforge.net/DTD/sodipodi-0.dtd"
   xmlns:inkscape="http://www.inkscape.org/namespaces/inkscape"
   style="enable-background:new"
   width="16"
   height="16"
   version="1.1"
   id="svg8"
   sodipodi:docname="process-completed.svg"
   inkscape:version="0.92.4 (5da689c313, 2019-01-14)">
  <metadata
     id="metadata14">
    <rdf:RDF>
      <cc:Work
         rdf:about="">
        <dc:format>image/svg+xml</dc:format>
        <dc:type
           rdf:resource="http://purl.org/dc/dcmitype/StillImage" />
      </cc:Work>
    </rdf:RDF>
  </metadata>
  <defs
     id="defs12" />
  <sodipodi:namedview
     pagecolor="#ffffff"
     bordercolor="#666666"
     borderopacity="1"
     objecttolerance="10"
     gridtolerance="10"
     guidetolerance="10"
     inkscape:pageopacity="0"
     inkscape:pageshadow="2"
     inkscape:window-width="854"
     inkscape:window-height="480"
     id="namedview10"
     showgrid="false"
     inkscape:zoom="14.75"
     inkscape:cx="0.30508475"
     inkscape:cy="8"
     inkscape:window-x="0"
     inkscape:window-y="27"
     inkscape:window-maximized="0"
     inkscape:current-layer="svg8" />
  <title
     id="title2">
  Paper Symbolic Icon Theme
 </title>
  <g
     transform="matrix(1.0733251,0,0,1.0723458,-542.61621,315.76685)"
     id="g6">
    <path
       class="success"
       d="m 512.87834,-293.99602 c -1.34529,0.0265 -2.69525,0.44583 -3.88281,1.27735 -3.16683,2.21743 -3.93227,6.55973 -1.71484,9.72656 2.21745,3.16683 6.55777,3.93228 9.72461,1.71484 2.27736,-1.59463 3.31198,-4.28216 2.89062,-6.85351 -0.0982,-0.6008 -0.285,-1.15996 -0.52734,-1.70117 l -6.35157,7.25781 -0.6875,0.8125 -0.78124,-0.75 -3,-3 c -0.37639,-0.37633 -0.37636,-1.06114 0,-1.4375 0.37636,-0.37635 1.06116,-0.37638 1.4375,0 l 2.25,2.25 6.02343,-6.89258 c -1.07681,-1.24128 -2.50923,-2.03034 -4.04297,-2.30078 -0.44106,-0.0778 -0.88946,-0.11236 -1.33789,-0.10352 z"
       style="fill:#1ea362"
       id="path4"
       inkscape:connector-curvature="0" />
  </g>
  <g
     transform="matrix(0.35714286,0,0,0.35714286,-0.5814299,-0.38285745)"
     style="enable-background:new"
     id="g889">
    <path
       inkscape:connector-curvature="0"
       id="rect877"
       transform="matrix(2.8,0,0,2.8,1.6280037,1.0720005)"
       d="M 8,0.5 C 3.845,0.5 0.5,3.845 0.5,8 0.5,8.084349 0.508983,8.1663399 0.5117188,8.25 0.64374905,4.2125917 3.9293488,1 8,1 12.070651,1 15.356251,4.2125917 15.488281,8.25 15.491017,8.1663399 15.5,8.0843489 15.5,8 15.5,3.845 12.155,0.5 8,0.5 Z"
       style="display:inline;opacity:0.3;fill:#ffffff;fill-opacity:1;stroke:none;stroke-width:0.36585367;stroke-miterlimit:4;stroke-dasharray:none;stroke-opacity:0.25098039;enable-background:new" />
    <path
       inkscape:connector-curvature="0"
       id="rect882"
       transform="matrix(2.8,0,0,2.8,1.6280037,1.0720005)"
       d="M 0.51171875,7.75 C 0.50898292,7.8336601 0.5,7.9156511 0.5,8 c 0,4.155 3.345,7.5 7.5,7.5 4.155,0 7.5,-3.345 7.5,-7.5 C 15.5,7.915651 15.491,7.8336601 15.48828,7.75 15.356251,11.787408 12.070651,15 8,15 3.9293488,15 0.64374905,11.787408 0.51171875,7.75 Z"
       style="display:inline;opacity:0.2;fill:#000000;fill-opacity:1;stroke:none;stroke-width:0.36585367;stroke-miterlimit:4;stroke-dasharray:none;stroke-opacity:0.25098039;enable-background:new" />
  </g>
</svg>
